source/img/icon_ig.svg

<svg width="11" height="11" viewBox="0 0 11 11" fill="none" xmlns="http://www.w3.org/2000/svg">
<path fill-rule="evenodd" clip-rule="evenodd" d="M7.26562 10.8237C8.08929 10.7835 8.8192 10.596 9.42188 9.99335C10.0246 9.39067 10.2121 8.66076 10.2522 7.8371C10.279 7.36388 10.285 6.89364 10.286 6.42241L10.2857 5.71433L10.2859 5.44822V5.44818C10.2867 4.82845 10.2874 4.21257 10.2522 3.59156C10.2121 2.76789 10.0246 2.03798 9.42188 1.4353C8.8192 0.832624 8.08929 0.645124 7.26562 0.604946C6.79241 0.57816 6.32217 0.572207 5.85094 0.571215L5.14285 0.571463L4.87672 0.571254C4.25699 0.570522 3.6411 0.569794 3.02008 0.604946C2.19642 0.645124 1.46651 0.832624 0.863832 1.4353C0.261152 2.03798 0.0736521 2.76789 0.0334735 3.59156C0.00668772 4.06477 0.00073533 4.53501 -0.000256735 5.00624L-8.71881e-06 5.71433L-0.00021826 5.98046C-0.00095059 6.60019 -0.00167838 7.21608 0.0334735 7.8371C0.0736521 8.66076 0.261152 9.39067 0.863832 9.99335C1.46651 10.596 2.19642 10.7835 3.02008 10.8237C3.4933 10.8505 3.96354 10.8564 4.43477 10.8574L5.14285 10.8572L5.40897 10.8574H5.409C6.02873 10.8581 6.64462 10.8589 7.26562 10.8237ZM5.33033 9.93398L5.14285 9.93308C5.03784 9.93308 4.91602 9.93426 4.7823 9.93556C3.96104 9.94353 2.69101 9.95584 2.10937 9.72549C1.87499 9.63174 1.70089 9.5179 1.52008 9.3371C1.33928 9.15629 1.22544 8.98219 1.13169 8.74781C0.901337 8.16617 0.913655 6.89614 0.921621 6.07488C0.922918 5.94116 0.9241 5.81934 0.9241 5.71433C0.9241 5.60931 0.922918 5.48749 0.921621 5.35378C0.913655 4.53251 0.901337 3.26248 1.13169 2.68084C1.22544 2.44647 1.33928 2.27236 1.52008 2.09155C1.70089 1.91075 1.87499 1.79691 2.10937 1.70316C2.69101 1.47281 3.96104 1.48513 4.78231 1.49309C4.91602 1.49439 5.03784 1.49557 5.14285 1.49557C5.24787 1.49557 5.36969 1.49439 5.5034 1.49309C6.32467 1.48513 7.5947 1.47281 8.17634 1.70316C8.41072 1.79691 8.58482 1.91075 8.76563 2.09155C8.94643 2.27236 9.06027 2.44647 9.15402 2.68084C9.38437 3.26248 9.37205 4.53251 9.36409 5.35378C9.36279 5.48749 9.36161 5.60931 9.36161 5.71433C9.36161 5.81934 9.36279 5.94116 9.36409 6.07488C9.37205 6.89614 9.38437 8.16617 9.15402 8.74781C9.06027 8.98219 8.94643 9.15629 8.76563 9.3371C8.58482 9.5179 8.41072 9.63174 8.17634 9.72549C7.5947 9.95584 6.32467 9.94353 5.50341 9.93556L5.33033 9.93398ZM8.50447 2.96879C8.50447 3.31031 8.22991 3.58486 7.88839 3.58486C7.54688 3.58486 7.27232 3.31031 7.27232 2.96879C7.27232 2.62727 7.54688 2.35272 7.88839 2.35272C8.22991 2.35272 8.50447 2.62727 8.50447 2.96879ZM5.14285 8.35272C6.60268 8.35272 7.78125 7.17415 7.78125 5.71433C7.78125 4.2545 6.60268 3.07593 5.14285 3.07593C3.68303 3.07593 2.50446 4.2545 2.50446 5.71433C2.50446 7.17415 3.68303 8.35272 5.14285 8.35272ZM3.42857 5.71433C3.42857 6.65852 4.19866 7.42861 5.14285 7.42861C6.08705 7.42861 6.85714 6.65852 6.85714 5.71433C6.85714 4.77013 6.08705 4.00004 5.14285 4.00004C4.19866 4.00004 3.42857 4.77013 3.42857 5.71433Z" fill="white"/>
</svg>

<svg width="0" height="0" class="hidden">
  <symbol fill="none" xmlns="http://www.w3.org/2000/svg" viewBox="0 0 11 11" id="icon_ig">
    <path fill-rule="evenodd" clip-rule="evenodd" d="M7.266 10.824c.823-.04 1.553-.228 2.156-.83.603-.603.79-1.333.83-2.157.027-.473.033-.943.034-1.415v-.974c0-.62.001-1.235-.034-1.856-.04-.824-.227-1.554-.83-2.157-.603-.602-1.333-.79-2.156-.83A25.937 25.937 0 005.85.57h-.974C4.257.571 3.64.57 3.02.605c-.824.04-1.553.228-2.156.83-.603.603-.79 1.333-.83 2.157A23.87 23.87 0 000 5.006v.974c-.001.62-.002 1.236.033 1.857.04.824.228 1.554.83 2.156.604.603 1.333.79 2.157.83.473.027.944.033 1.415.034h.974c.62.001 1.236.002 1.857-.033zm-1.936-.89h-.187c-.105 0-.227 0-.36.002-.822.008-2.092.02-2.674-.21a1.644 1.644 0 01-.589-.389 1.644 1.644 0 01-.388-.59c-.23-.58-.218-1.85-.21-2.672l.002-.36-.002-.361c-.008-.821-.02-2.092.21-2.673a1.63 1.63 0 01.388-.59c.18-.18.355-.294.59-.388.581-.23 1.851-.218 2.672-.21a39.161 39.161 0 00.721 0c.822-.008 2.092-.02 2.673.21.235.094.409.208.59.389.18.18.294.354.388.589.23.581.218 1.852.21 2.673a39.16 39.16 0 000 .72c.008.822.02 2.092-.21 2.674a1.644 1.644 0 01-.388.59 1.64 1.64 0 01-.59.387c-.581.23-1.851.219-2.673.21l-.173-.001zm3.174-6.965a.614.614 0 01-.616.616.614.614 0 01-.616-.616c0-.342.275-.616.616-.616.342 0 .616.274.616.616zM5.143 8.353A2.635 2.635 0 007.78 5.714a2.635 2.635 0 00-2.638-2.638 2.635 2.635 0 00-2.639 2.638 2.635 2.635 0 002.639 2.639zM3.429 5.714c0 .945.77 1.715 1.714 1.715s1.714-.77 1.714-1.715C6.857 4.77 6.087 4 5.143 4s-1.714.77-1.714 1.714z" fill="#fff"></path>
  </symbol>
</svg>
